**kern	**text	**text	**text	**text	**harte
!!pagebreak:original
*clefG2	*	*	*	*	*
*k[]	*	*	*	*	*
*	*	*	*	*	*
*M3/4	*	*	*	*	*
8e	Am:	.	.	.	.
=1	=1	=1	=1	=1	=1
8e	i	.	.	.	A:min
8r	.	.	.	.	.
[4f	.	.	.	.	F/3
6f]	.	.	.	.	.
12e	.	.	.	.	A:min
=2	=2	=2	=2	=2	=2
8e	.	.	.	.	A:min
8r	.	.	.	.	.
[4d	.	.	.	.	A:sus4(2)
6d]	.	.	.	.	.
12e	.	.	.	.	A:min
=3	=3	=3	=3	=3	=3
8d	.	.	.	.	A:sus4(2)
8r	.	.	.	.	.
[4B	.	.	.	.	A:sus4
6B]	.	.	.	.	.
12c	.	.	.	.	A:min
=4	=4	=4	=4	=4	=4
8B	.	.	.	.	A:sus2
8r	.	.	.	.	.
2A	.	.	.	//	A:min
=5	=5	=5	=5	=5	=5
8e	.	.	.	.	A:min
8r	.	.	.	.	.
[4f	.	.	.	.	F/3
6f]	.	.	.	.	.
12g	.	.	.	.	A:7(2,*3)
!!linebreak:original
=6	=6	=6	=6	=6	=6
8g	.	.	.	.	A:7(2,*3)
8r	.	.	.	.	.
[4f	.	.	.	.	F/3
6f]	.	.	.	.	.
12d	.	.	.	.	A:sus4(2)
=7	=7	=7	=7	=7	=7
8d	.	.	.	.	A:sus4(2)
8r	.	.	.	.	.
[4e	.	.	.	.	A:min
6e]	.	.	.	.	.
12c	.	.	.	.	.
=8	=8	=8	=8	=8	=8
8d	.	.	.	.	A:sus4(2)
8r	.	.	.	.	.
2B	.	.	.	.	.
=9	=9	=9	=9	=9	=9
8c	.	.	.	.	.
8r	.	.	.	.	.
2B	.	.	.	.	A:sus4(2)
=10	=10	=10	=10	=10	=10
8A	.	.	.	||	A:min
8r	.	.	.	.	.
4r	.	.	.	.	.
4r	.	.	.	.	.
=	=	=	=	=	=
*-	*-	*-	*-	*-	*-
